X: 3
T: Maud Millar
R: reel
M: 4/4
L: 1/8
K: Gmaj
edBA GEDE|G2(3BAG DGBd|eBdB A2GA|1Beed efgf:|2Beed e2ge||dega bgg2|agef gfge|dega bgg2|aged eage|dega bgg2|agef gfga|bgaf gfed|Beed [Be][df]gf||


Tune 1177	Setting 23827

